X: 41516
T: Umbilical Cord, The
R: reel
M: 4/4
K: Ddorian
DAAG BAGA|DAAG EcGE|DAAG BAGE|1 AcGE EDDE:|2 AcGE EDD2||
cddc dcAG|cddc dec2-|cddc d2AG|AGcG EDD2|
cdd/d/d dcAG|cddc dec2|f3e- edAB|cAGE EDDE|

